X:93
T:Swiss Waltz. Le4.093
B:L.Leadley MS#4 c1850
Z:Village Music Project, 2016 Steve Mansfield
M:3/8
L:1/8
Q:3/8=60
K:Bb
F | d2c | B2 (B/d/) | c/e/A/c/B/d/ | F2F |d2c | [GB]2 (B/d/) | d/c/e/c/A/c/ | B2 :|
|: (B/d/) | c/e/A/c/B/d/ | c/.e/.A/c/B/d/ | c/e/A/c/B/d/ |\
F2F |d2c | B2 (B/d/) | d/c/e/c/A/c/ | B2 :|
|:F|B/A/B/c/d/e/|fff|^f/g/e/g/b/g/|fdf|e/c/A/c/e/c/|d/B/F/B/d/B/|d/c/e/c/A/c/|B2:|
|:(d/f/)|e/c/A/F/E/C/|Ddd|cee|d2(d/f/)|.e/.c/.A/.F/.E/.C/|B,dd|.d/.c/.e/.c/.A/.c/|B2:|
%abc
%%abc-alias none
%%abc-creator ABCexplorer 1.6.1 [22/04/2016]

